X:1
T:Alleluia Verse
C:Ancient; chant setting traditional
S:Traditional Lutheran liturgy; public domain
M:C
L:1/4
K:C
%% Alleluia
G A G | E2 | D E G A | G4 ||
%% Verse (one reciting tone plus cadence)
G G G G | G G G G | G G A G | G F E D | E4 ||
%% Alleluia (repeat)
G A G | E2 | D E G A | G4 ||

## Musiquik
&0VWV.d.STVW.v)VVVV.VVVV.VVWV.VUTS.t)VWV.d.STVW.v)

#Lyrics
Alleluia! Alleluia! Alleluia! [verse for the Sunday or feast day] Alleluia!

#Citations and References

Words: Ancient liturgical acclamation; public domain.
Music: 'Alleluia' Traditional Lutheran chant; ancient, public domain.
Setting: Lutheran Service Book (LSB), Divine Service; traditional.
copyright: public domain.

https://openhymnal.org
